client/public/img/game/shared/obstacles/fence.svg

<?xml version="1.0" encoding="UTF-8" standalone="no"?>
<svg
   width="177"
   height="40"
   viewBox="0 0 177 40"
   fill="none"
   version="1.1"
   id="svg15"
   xmlns="http://www.w3.org/2000/svg"
   xmlns:svg="http://www.w3.org/2000/svg">
  <defs
     id="defs15" />
  <path
     d="M3.5403 31.3735L30.7976 4.11621L35.1182 8.52486L7.86086 35.7822L3.5403 31.3735Z"
     fill="#A0A0A0"
     id="path1" />
  <path
     d="M26.4773 31.3735L53.7346 4.11621L58.0552 8.52486L30.7979 35.7822L26.4773 31.3735Z"
     fill="#A0A0A0"
     id="path2" />
  <path
     d="M49.4141 31.3735L76.6714 4.11621L80.992 8.52486L53.7346 35.7822L49.4141 31.3735Z"
     fill="#A0A0A0"
     id="path3" />
  <path
     d="M72.3508 31.3735L99.6082 4.11621L103.929 8.52486L76.6714 35.7822L72.3508 31.3735Z"
     fill="#A0A0A0"
     id="path4" />
  <path
     d="M95.2876 31.3735L122.545 4.11621L126.865 8.52486L99.6082 35.7822L95.2876 31.3735Z"
     fill="#A0A0A0"
     id="path5" />
  <path
     d="M118.224 31.3735L145.482 4.11621L149.802 8.52486L122.545 35.7822L118.224 31.3735Z"
     fill="#A0A0A0"
     id="path6" />
  <path
     d="M141.161 31.3735L168.418 4.11621L172.739 8.52486L145.482 35.7822L141.161 31.3735Z"
     fill="#A0A0A0"
     id="path7" />
  <path
     d="M7.90505 4.16066L35.1624 31.418L30.7537 35.7385L3.49639 8.48122L7.90505 4.16066Z"
     fill="#A0A0A0"
     id="path8" />
  <path
     d="M30.8418 4.16066L58.0991 31.418L53.6905 35.7385L26.4332 8.48122L30.8418 4.16066Z"
     fill="#A0A0A0"
     id="path9" />
  <path
     d="M53.7786 4.16066L81.0359 31.418L76.6272 35.7385L49.3699 8.48122L53.7786 4.16066Z"
     fill="#A0A0A0"
     id="path10" />
  <path
     d="M76.7153 4.16066L103.973 31.418L99.564 35.7385L72.3067 8.48122L76.7153 4.16066Z"
     fill="#A0A0A0"
     id="path11" />
  <path
     d="M99.6521 4.16066L126.909 31.418L122.501 35.7385L95.2435 8.48122L99.6521 4.16066Z"
     fill="#A0A0A0"
     id="path12" />
  <path
     d="M122.589 4.16066L149.846 31.418L145.438 35.7385L118.18 8.48122L122.589 4.16066Z"
     fill="#A0A0A0"
     id="path13" />
  <path
     d="M145.526 4.16066L172.783 31.418L168.374 35.7385L141.117 8.48122L145.526 4.16066Z"
     fill="#A0A0A0"
     id="path14" />
  <path
     d="M3.54028 35.7344H172.739V4.16437H3.54028V35.7344Z"
     stroke="#828282"
     stroke-width="6.79997"
     stroke-linecap="square"
     id="path15" />
</svg>

<svg xmlns="http://www.w3.org/2000/svg" width="177" height="40" fill="none"><path fill="#A0A0A0" d="M3.54 31.374 30.798 4.116l4.32 4.409L7.861 35.782zM26.477 31.374 53.735 4.116l4.32 4.409-27.257 27.257zM49.414 31.374 76.671 4.116l4.321 4.409-27.257 27.257zM72.35 31.374 99.609 4.116l4.321 4.409-27.258 27.257zM95.288 31.374l27.257-27.258 4.32 4.409-27.257 27.257zM118.224 31.374l27.258-27.258 4.32 4.409-27.257 27.257zM141.161 31.374l27.257-27.258 4.321 4.409-27.257 27.257z"/><path fill="#A0A0A0" d="m7.905 4.16 27.257 27.258-4.408 4.32L3.496 8.482zM30.842 4.16l27.257 27.258-4.408 4.32L26.433 8.482zM53.779 4.16l27.257 27.258-4.409 4.32L49.37 8.482zM76.715 4.16l27.258 27.258-4.409 4.32L72.307 8.482zM99.652 4.16l27.257 27.258-4.408 4.32L95.243 8.482zM122.589 4.16l27.257 27.258-4.408 4.32L118.18 8.482zM145.526 4.16l27.257 27.258-4.409 4.32-27.257-27.257z"/><path stroke="#828282" stroke-linecap="square" stroke-width="6.8" d="M3.54 35.734H172.74V4.164H3.54z"/></svg>
